X: 27
T: The Wedding Ring
R: reel
M: 2/4
L: 1/16
Z: 2011 John Chambers <jc:trillian.mit.edu>
B: Charles & Samuel Thompson eds "Twenty Four Country Dances", London 1774, p.14 #1
K: Bb
% - - - - - - - - - - - - - - - - - - - - - - - - -
|: BFDF BdcB | cAFA cedc | dbfd g2fe | d2cB A2GF |
   BFDF BdcB | cAFA cedc | dbfd g2fe | dcBA B4  :|
|: BcBA BcBA | Bcde f2F2 | GAG^F GAG^F | GABc d2D2 |
   EFED EFED | EFGA B2B,2 | C2g2 fdec | B2F2 B,4 :|
% - - - - - - - - Dance description - - - - - - - -
%%begintext align
%% Right hands across Left hands back again .|. cross over &
%% back to back :|. lead thro' the bottom the same thro' the top
%% & cast off .|: lead out sides :|:
%%endtext

%%sep 1 1 500
